icons/round/action/ic_flip_to_back_24px.svg

<svg xmlns="http://www.w3.org/2000/svg" height="24" viewBox="0 0 24 24" width="24"><path d="M0 0h24v24H0V0z" fill="none"/><path d="M9 7H7v2h2V7zm0 4H7v2h2v-2zm0-8c-1.11 0-2 .9-2 2h2V3zm4 12h-2v2h2v-2zm6-12v2h2c0-1.1-.9-2-2-2zm-6 0h-2v2h2V3zM9 17v-2H7c0 1.1.89 2 2 2zm10-4h2v-2h-2v2zm0-4h2V7h-2v2zm0 8c1.1 0 2-.9 2-2h-2v2zM4 7c-.55 0-1 .45-1 1v11c0 1.1.9 2 2 2h11c.55 0 1-.45 1-1s-.45-1-1-1H6c-.55 0-1-.45-1-1V8c0-.55-.45-1-1-1zm11-2h2V3h-2v2zm0 12h2v-2h-2v2z"/></svg>

<svg xmlns="http://www.w3.org/2000/svg" enable-background="new 0 0 24 24" height="24" viewBox="0 0 24 24" width="24"><g><path d="M0,0h24v24H0V0z" fill="none"/></g><g><path d="M9,7H7v2h2V7z M9,11H7v2h2V11z M9,3C7.89,3,7,3.9,7,5h2V3z M13,15h-2v2h2V15z M19,3v2h2C21,3.9,20.1,3,19,3z M13,3h-2v2h2 V3z M9,17v-2H7C7,16.1,7.89,17,9,17z M19,13h2v-2h-2V13z M19,9h2V7h-2V9z M19,17c1.1,0,2-0.9,2-2h-2V17z M4,7C3.45,7,3,7.45,3,8v11 c0,1.1,0.9,2,2,2h11c0.55,0,1-0.45,1-1s-0.45-1-1-1H5V8C5,7.45,4.55,7,4,7z M15,5h2V3h-2V5z M15,17h2v-2h-2V17z"/></g></svg>
